svgs/thin/vacuum-robot.svg

<svg xmlns="http://www.w3.org/2000/svg" viewBox="0 0 512 512"><!--! Font Awesome Pro 6.3.0 by @fontawesome - https://fontawesome.com License - https://fontawesome.com/license (Commercial License) Copyright 2023 Fonticons, Inc. --><path d="M141.1 242.9c-3.125-3.125-8.188-3.125-11.31 0s-3.125 8.188 0 11.31l128 128c1.562 1.562 3.609 2.344 5.656 2.344s4.094-.7813 5.656-2.344c3.125-3.125 3.125-8.188 0-11.31L141.1 242.9zM212.7 235.3C209.6 232.2 204.5 232.2 201.4 235.3s-3.125 8.188 0 11.31l64 64c1.562 1.562 3.609 2.344 5.656 2.344s4.094-.7813 5.656-2.344c3.125-3.125 3.125-8.188 0-11.31L212.7 235.3zM133.5 314.5c-3.125-3.125-8.188-3.125-11.31 0s-3.125 8.188 0 11.31l64 64c1.562 1.562 3.609 2.344 5.656 2.344s4.094-.7813 5.656-2.344c3.125-3.125 3.125-8.188 0-11.31L133.5 314.5zM256 88c-53.34 0-102.3 24.5-134.4 67.19C118.1 158.7 119.7 163.8 123.2 166.4C126.7 169 131.8 168.4 134.4 164.8C163.4 126.2 207.7 104 256 104c83.81 0 152 68.19 152 152c0 48.25-22.16 92.59-60.78 121.6c-3.547 2.656-4.25 7.688-1.594 11.22C347.2 390.9 349.6 392 352 392c1.672 0 3.359-.5313 4.797-1.594C399.5 358.3 424 309.3 424 256C424 163.4 348.6 88 256 88zM256 0C114.8 0 0 114.8 0 256s114.8 256 256 256s256-114.8 256-256S397.2 0 256 0zM256 496c-132.3 0-240-107.7-240-240S123.7 16 256 16s240 107.7 240 240S388.3 496 256 496z"/></svg>

<svg xmlns="http://www.w3.org/2000/svg" viewBox="0 0 512 512"><!-- Font Awesome Pro 6.0.0-alpha2 by @fontawesome - https://fontawesome.com License - https://fontawesome.com/license (Commercial License) --><path d="M256 16C123.451 16 16 123.451 16 256S123.451 496 256 496S496 388.549 496 256S388.549 16 256 16ZM256 480C132.486 480 32 379.514 32 256S132.486 32 256 32S480 132.486 480 256S379.514 480 256 480ZM256 88C202.656 88 153.672 112.5 121.609 155.188C118.953 158.719 119.656 163.75 123.203 166.406C126.734 169.031 131.766 168.375 134.391 164.812C163.406 126.156 207.734 104 256 104C339.812 104 408 172.188 408 256C408 304.25 385.844 348.594 347.219 377.594C343.672 380.25 342.969 385.281 345.625 388.812C347.188 390.906 349.594 392 352.016 392C353.688 392 355.375 391.469 356.812 390.406C399.516 358.344 424 309.344 424 256C424 163.375 348.641 88 256 88ZM133.484 314.5C130.359 311.375 125.297 311.375 122.172 314.5S119.047 322.688 122.172 325.812L186.172 389.812C187.734 391.375 189.781 392.156 191.828 392.156S195.922 391.375 197.484 389.812C200.609 386.688 200.609 381.625 197.484 378.5L133.484 314.5ZM212.688 235.312C209.563 232.188 204.5 232.188 201.375 235.312S198.25 243.5 201.375 246.625L265.375 310.625C266.938 312.187 268.984 312.969 271.031 312.969S275.125 312.187 276.688 310.625C279.812 307.5 279.812 302.437 276.688 299.312L212.688 235.312ZM141.094 242.906C137.969 239.781 132.906 239.781 129.781 242.906S126.656 251.094 129.781 254.219L257.781 382.219C259.344 383.781 261.391 384.562 263.438 384.562S267.531 383.781 269.094 382.219C272.219 379.094 272.219 374.031 269.094 370.906L141.094 242.906Z"/></svg>
